X:358
T: "Der Herr von Falkenstein"
N: Z1038
O: Europa, Mitteleuropa, Deutschland
R: Romanze, Ballade
M: 4/4
L: 1/8
K: G
d2 | d2c_BA3d | d2c_BA3
c | _B3AG2G2 | F4G3
G | A2_B2c3A | _B2c2d3
c | _B2A2G2B2 | A4G2

@@@ Tune index: 10116
